!!!OTL: Der Meierin Sohn Bie vrie ischt auf de Vra Moaierin.
!!!ARE: Europa, Suedosteuropa, Jugoslavija, Gottschee, Lichtenbach
!!!YOR: 4, S. 234
!!    1937 aufgezeichnet
!!!SCT: Q0083A
!!!YEM: Copyright 1995, estate of Helmut Schaffrath.
**kern
*ICvox
*Ivox
!! Mixed meters:  2/4; 3/4
*M3/4
*k[b-e-]
*g:
{4d
=1
4g
4a
=2
2b-
8cc
8a
=3
*M2/4
4dd
8cc
8b-
=4
2a}
=5
{4d
=6
4g
4a
=7
*M3/4
2b-
8a
8g
=8
*M2/4
8f#
8g
8a
8d
=9
*M3/4
2g
4r}
=10
{8ffxxxx#
=11
8ffxxxx#
=12
*M2/4
4g
8a
8d
=13
4g}
==
!!!AGN: Ballade, Mord, Vergeltung, Heirat
!! Viele Verzierungen (Vorschlaege) . Sprechgesang (Tonhoehen angegeben)
!!    in der letzten Zeile. Dritte Zeile = Refrain ??
!!!ONB: ESAC (Essen Associative Code) Database: BALLADE
!!!AMT: irregular
!!!AIN: vox
!!!EED: Helmut Schaffrath
!!!EEV: 1.0
*-
